X:7935
T:Song of the Fjords
C:anon.
O:Norway
F:http://abc.musicaviva.com/tunes/norway/anon-fjord-song/anon-fjord-song-1.abc
M:C
L:1/4
K:Bb
BcdB|BcdB|e2d2|cccz|BcdB|BcdB|e2d2|cdBz|]
W:
W:
W:  From Musica Viva - http://www.musicaviva.com
W:  the Internet center for free sheet music downloads.

